X: 2
T: Pipe Slang
C:
O:
R: reel
B: Version from the Concord Slow Scottish Jam session binder _.
N: "version by Laura Risk"
N: "taught by Laura Risk - Boston Harbor 2004"
Z: 2015 John Chambers <jc:trillian.mit.edu>
M: C
L: 1/8
K: Amix
ed |\
cA A/A/A A2AB | cdef gece | fd d/d/d d2fd | eE E/E/E e2ed |
cA A/A/A A2AB | cdef gece | fd d/d/d a2af | eE E/E/E e2 :|
|: ec |\
A2a2 gece | f2ed ecAB | A2a2 gece | f2ed e2ec |
A2a2 gece | f2ed ecAB | G3B GBde | f2ed e2 :|

%%sep 1 1 500
